X:1
T:Nocturne
T:Nocturne
T:Op. 15 No. 1 
T:Chopin
C:Chopin
%%score { ( 1 6 ) | ( 2 3 4 5 ) }
L:1/8
Q:1/4=69
M:3/4
K:F
V:1 treble nm="Piano" snm="Pno."
V:6 treble 
V:2 bass 
V:3 bass 
V:4 bass 
V:5 bass 
V:1
"^Antante cantabile" c2 | f4 e2 | d2 e2 c2 | d>e f2 g2 | a6 | g2 a>g (3gfe | f3 e (3def | %7
 e4 (3edA | =B4 (3cd3/2c/ |{/c} f4 (9:4:5(1:1:3e/f/e/g z | (9:4:5(1:1:3d/e/d/f z e2 c2 | %11
 d>e f2 g2 | a6 | b4 a2 | g2{agfg} a2 f2 |{/A} c2 f2 e2 | g6 | b4 a2 | g2{ag^fg} a2 =f2 | %19
 c2 g2- g>f | f2 d'4 | c2 g2- g>f | f4 e2 | d2 e2 c2 | d2 e2 z2 || %25
[K:Ab][Q:1/4=84]"^Con fuoco." (6:4:6[A,F]/[CA]/[A,F]/[CA]/[A,F]/[CA]/ (6:4:6[A,F]/[CA]/[A,F]/[CA]/[A,F]/[CA]/ (6:4:6[A,F]/[CA]/[A,F]/[CA]/[A,F]/[CA]/ | %26
 (6:4:6[B,F]/[DA]/[B,F]/[DA]/[B,F]/[DA]/ (6:4:6[B,F]/[DA]/[B,F]/[DA]/[B,F]/[DA]/ (6:4:6[B,F]/[DG]/[B,F]/[DG]/[B,F]/[DG]/ | %27
 (6:4:6[B,G]/[FB]/[B,G]/[FB]/[B,G]/[FB]/ (6:4:6[B,G]/[FB]/[B,G]/[FB]/[B,G]/[FB]/ (6:4:6[B,G]/[FB]/[B,G]/[FB]/[B,G]/[FB]/ | %28
 (6:4:6[B,_G]/[EB]/[B,G]/[EB]/[B,G]/[EB]/ (6:4:6[B,G]/[EB]/[B,G]/[EB]/[B,G]/[EB]/ (6:4:6[=A,G]/[E=A]/[A,G]/[EA]/[A,G]/[EA]/ | %29
 (6:4:6[Fc]/[=Af]/[Fc]/[Af]/[Fc]/[Af]/ (6:4:6[Fd]/[Bf]/[Fd]/[Bf]/[Fd]/[Bf]/ (6:4:6[Fd]/[_cf]/[Fd]/[cf]/[Fd]/[cf]/ | %30
 (6:4:6[Fd]/[_cf]/[Fd]/[cf]/[Fd]/[cf]/ (6:4:6[_Gd]/[c_g]/[Gd]/[cg]/[Gd]/[cg]/ (6:4:6[Ad]/[ca]/[Ad]/[ca]/[Ad]/[ca]/ | %31
 a>b _g2 f2 | e2 f4 | a>b _g2 f2 | e2 f4 | %35
 (6:4:6_B/c/B/c/B/c/ (6:4:6A/c/A/c/[G_e]/B/ (6:4:6[Fd]/A/[Ec]/G/[DB]/F/ |[M:6/8] AGF GF=E | %37
[M:3/4] (6:4:6[A,F]/[CA]/[A,F]/[CA]/[A,F]/[CA]/ (6:4:6[A,F]/[CA]/[A,F]/[CA]/[A,F]/[CA]/ (6:4:6[A,F]/[CA]/[A,F]/[CA]/[A,F]/[CA]/ | %38
 (6:4:6[B,F]/[DA]/[B,F]/[DA]/[B,F]/[DA]/ (6:4:6[B,F]/[DA]/[B,F]/[DA]/[B,F]/[DA]/ (6:4:6[B,F]/[DG]/[B,F]/[DG]/[B,F]/[DG]/ | %39
 (6:4:6[B,G]/[FB]/[B,G]/[FB]/[B,G]/[FB]/ (6:4:6[B,G]/[FB]/[B,G]/[FB]/[B,G]/[FB]/ (6:4:6[B,G]/[FB]/[B,G]/[FB]/[B,G]/[FB]/ | %40
 (6:4:6[B,_G]/[EB]/[B,G]/[EB]/[B,G]/[EB]/ (6:4:6[B,G]/[EB]/[B,G]/[EB]/[B,G]/[EB]/ (6:4:6[=A,G]/[E=A]/[A,G]/[EA]/[A,G]/[EA]/ | %41
 (6:4:6[C_A]/[_Gc]/[CA]/[Gc]/[CA]/[Gc]/ (6:4:6[DA]/[Gd]/[DA]/[Gd]/[DA]/[Gd]/ (6:4:6[EA]/[Ge]/[EA]/[Ge]/[EA]/[Ge]/ | %42
 (6:4:6[EA]/[_Ge]/[EA]/[Ge]/[EA]/[Ge]/ (6:4:6[EA]/[Ge]/[EA]/[Ge]/[EA]/[Ge]/ (6:4:6[EA]/[Ge]/[EA]/[Ge]/[EA]/[Ge]/ | %43
 (6:4:6z/ [A=d]/[=DB]/[Ad]/[DB]/[Ad]/ (6:4:6[EB]/[Ae]/[EB]/[Ae]/[EB]/[Ae]/ (6:4:6[FB]/[Af]/[FB]/[Af]/[FB]/[Af]/ | %44
 (6:4:6[FB]/[Af]/[FB]/[Af]/[FB]/[Af]/ (6:4:6[FB]/[Af]/[FB]/[Af]/[FB]/[Af]/ (6:4:6[FB]/[Af]/[FB]/[Af]/[FB]/[Af]/ | %45
 f>_g e2 f>g | e2 e>f d2- | d2 c>d B2- |[M:6/8] B3 =A2 G || %49
[K:F][M:3/4][Q:1/4=69]"^Tempo I"{CFA} f4 e2 | d2 e2 c2 | d>e f2 g2 | a6 | g2 a>g (3gfe | %54
 f3 e (7:4:7d/e/d/^c/d/e/f/ | e3 e- (3edA | =B4 (3:2:7c-(3c/=B/c/{/c}(3e/d/c/ | %57
 f4 (9:4:5(1:1:3e/f/e/g z | (9:4:5(1:1:3d/e/d/f z e2 c2 | d>e f2 g2 | a6 | b4 a2 | g2{agfg} a2 f2 | %63
{/A} c2 f2 e2 | g6 | b4 a2 | g2{ag^fg} a2 =f2 | c2 g2- g>f | f2 d'4 | c2 g2- g>f | f4 e2 | %71
 d2 e2 c2 | d2 e2 c2 | (8:2:8x x x x x EBc g6 | (7:2:7x x x CFAc f6 |] %75
V:2
 z2 | F2 F2 E2 | D2 E2 C2 | D2 E2 C2 | C2 ^C2 D2 | =B,2 _B,2 B,2 | A,2 A,2 A,2 | ^G,2 A,2 A,2 | %8
 x2 E2 E2 | F2 F2 E2 | D2 E2 C2 | D2 E2 C2 | C2 ^C2 C2 | _D2 =C2 =D2 | E2 =F2 ^G2 | x2 F2 E2 | %16
 _D2 D2 D2 | _D4 D2 | ^C2 =C2 =B,2 | x2 F2 E2 | F2 x2 D2 | x2 F2 E2 | F2 F2 E2 | D2 E2 C2 | %24
 D2 E2 z2 || %25
[K:Ab] (6:4:6C,/=B,,/C,/D,/C,/B,,/ (6:4:6C,/_B,,/A,,/G,,/F,,/=E,,/ (6:4:6F,,/_E,,/D,,/C,,/B,,,/A,,,/ | %26
 (6:4:7F,,,/D,,/F,,/B,,/D,/z/4F,/4 F,2 z2 | %27
 (6:4:6D,/C,/D,/E,/D,/C,/ (6:4:6D,/C,/B,,/=A,,/B,,/_A,,/ (6:4:6G,,/F,,/E,,/D,,/C,,/B,,,/ | %28
 (6:4:7F,,,/_G,,/C,/E,/_G,/z/4C/4 C2 z2 | C>D B,2 _A,2 | A,>B, _G,2 F,2- | F,2 _G,2 A,2 | %32
 B,2 A,2 D2 |{/D,,} F,2 _G,2 A,2 | B,2 A,2 D2 |{/C,} (6:4:6=E/C/E/C/E/C/ [F,F] z z2 |[M:6/8] z6 | %37
[M:3/4] (6:4:6C,/=B,,/C,/D,/C,/B,,/ (6:4:6C,/_B,,/A,,/G,,/F,,/=E,,/ (6:4:6F,,/_E,,/D,,/C,,/B,,,/A,,,/ | %38
 (6:4:7F,,,/D,,/F,,/B,,/D,/z/4F,/4 F,2 z2 | %39
 (6:4:6D,/C,/D,/E,/D,/C,/ (6:4:6D,/C,/B,,/=A,,/B,,/_A,,/ (6:4:6G,,/F,,/E,,/D,,/C,,/B,,,/ | %40
 (6:4:7F,,,/_G,,/C,/E,/_G,/z/4C/4 C2 z2 | E,>F, D,2 C,2 | [=B,,,=B,,]>[C,,C,] [A,,,A,,]4 | %43
 F,>_G, E,2 =D,2 | [^C,,^C,]>[=D,,=D,] [B,,,B,,]4 | %45
{/B,,} (6:4:6=D/B,/D/B,/D/B,/ (6:4:6[E,E]/B,/E/B,/E/B,/{/B,,} (6:4:6D/B,/D/B,/D/B,/ | %46
 (6:4:6[E,E]/B,/E/B,/E/B,/{/A,,} (6:4:6C/A,/C/A,/C/A,/ (6:4:6[D,D]/A,/D/A,/D/A,/ | %47
 (6:4:6D/A,/D/A,/D/A,/{/F,,} (6:4:6=A,/F,/A,/F,/A,/F,/ (6:4:6[B,,B,]/F,/B,/F,/B,/F,/ | %48
[M:6/8] B,/F,/B,/F,/B,/F,/ B,/F,/B,/F,/B,/F,/ ||[K:F][M:3/4] x2 F2 E2 | D2 E2 C2 | D2 E2 C2 | %52
 C2 ^C2 D2 | =B,2 _B,2 B,2 | A,2 A,2 A,2 | ^G,2 A,2 A,2 | x2 E2 E2 | F2 F2 E2 | D2 E2 C2 | %59
 D2 E2 C2 | C2 ^C2 C2 | _D2 =C2 =D2 | E2 =F2 ^G2 | x2 F2 E2 | _D2 D2 D2 | _D4 D2 | ^C2 =C2 =B,2 | %67
 x2 F2 E2 | F2 x2 D2 | x2 F2 E2 | F2 F2 E2 | D2 E2 C2 | D2 E2 C2 | %73
 (8:2:8F,,C,G,B,C x x x x2 x2 x2 | (7:2:7F,,C,A, x x x x x4 x2 |] %75
V:3
 x2 | F,6 | F,6 | F,6 | F,2 E,2 D,2 | D,2 _D,2 C,2 | C,2 =B,,4 | =B,,2 A,,2 !arpeggio!F,,2 | %8
 !arpeggio![E,,=B,,^G,]2 G,2 =G,2 | F,6 | F,4 F,2 | F,4 F,2 | F,2 E,4 | E,4 ^F,2 | G,2 F,2 =B,2 | %15
 C,2 A,2 G,2 | F,4 E,2 | _E,4 E,2 | _E,2 D,2 D,2 | C,6 | F,2 =B,,2 F,2 | C,,6 | F,6- | F,6 | %24
 F,2 F,2 z2 ||[K:Ab] F,,2 x4 | x6 | F,,2 x4 | x6 | D,6- | D,6 | [_G,,D,-]6 | D,6 | x2 D,4- | D,6 | %35
 x6 |[M:6/8] x6 |[M:3/4] F,,2 x4 | x6 | F,,2 x4 | x6 | [A,,A,]6 | x6 | [B,,B,]6 | x6 | x6 | x6 | %47
 x6 |[M:6/8] x6 ||[K:F][M:3/4] x6 | F,6 | F,6 | F,2 E,2 D,2 | D,2 _D,2 C,2 | C,2 =B,,4 | %55
 =B,,2 A,,2 !arpeggio!F,,2 | !arpeggio![E,,=B,,^G,]2 G,2 =G,2 | F,6 | F,4 F,2 | F,4 F,2 | F,2 E,4 | %61
 E,4 ^F,2 | G,2 =F,2 =B,2 | C,2 A,2 G,2 | F,4 E,2 | _E,4 E,2 | _E,2 D,2 D,2 | C,6 | F,2 =B,,2 F,2 | %69
 C,,6 | F,6 | F,6 | F,6 | x8 | x321/40 |] %75
V:4
 x2 | (3A,CC (3A,CC (3A,CC | (3A,B,B, (3G,B,B, (3G,B,B, | (3G,B,B, (3G,B,B, (3G,B,B, | %4
 (3F,A,A, (3G,A,A, (3F,A,A, | (3F,G,G, (3F,G,G, (3E,G,G, | (3E,F,F, (3D,F,F, (3D,F,F, | %7
 (3D,E,E, (3C,E,E, (3=B,,D,D, | (3^G,=B,B, (3G,B,B, (3_B,CC | (3A,CC (3A,CC (3A,CC | %10
 (3A,B,B, (3G,B,B, (3G,B,B, | (3G,B,B, (3G,B,B, (3G,B,B, | (3F,A,A, (3G,A,A, (3G,A,A, | %13
 (3G,B,B, (3G,B,B, (3A,CC | (3B,CC (3A,CC (3=B,DD | (3C,CC (3A,CC (3G,CC | %16
 (3G,=B,B, (3G,B,B, (3G,_B,B, | (3G,B,B, (3G,B,B, (3G,A,A, | (3G,A,A, (3^F,A,A, (3=F,G,G, | %19
 (3C,CC (3_B,CC (3B,CC | (3A,CC (3=B,,_A,A, (3F,A,A, | (3C,,CC (3_B,CC (3B,CC | %22
 (3A,CC (3A,CC (3A,CC | (3A,B,B, (3G,B,B, (3G,B,B, | G,B, G,B, z2 ||[K:Ab] x6 | x6 | x6 | x6 | x6 | %30
 x6 | x6 | x6 | x6 | x6 | x6 |[M:6/8] x6 |[M:3/4] x6 | x6 | x6 | x6 | x6 | x6 | x6 | x6 | x6 | x6 | %47
 x6 |[M:6/8] x6 ||[K:F][M:3/4] (3F,,CC (3A,CC (3A,CC | (3A,B,B, (3G,B,B, (3G,B,B, | %51
 (3G,B,B, (3G,B,B, (3G,B,B, | (3F,A,A, (3G,A,A, (3F,A,A, | (3F,G,G, (3F,G,G, (3E,G,G, | %54
 (3E,F,F, (3D,F,F, (3D,F,F, | (3D,E,E, (3C,E,E, (3=B,,D,D, | (3^G,=B,B, (3G,B,B, (3_B,CC | %57
 (3A,CC (3A,CC (3A,CC | (3A,B,B, (3G,B,B, (3G,B,B, | (3G,B,B, (3G,B,B, (3G,B,B, | %60
 (3F,A,A, (3G,A,A, (3G,A,A, | (3G,B,B, (3G,B,B, (3A,CC | (3B,CC (3A,CC (3=B,DD | %63
 (3C,CC (3A,CC (3G,CC | (3G,=B,B, (3G,B,B, (3G,_B,B, | (3G,B,B, (3G,B,B, (3G,A,A, | %66
 (3G,A,A, (3^F,A,A, (3=F,G,G, | (3C,CC (3_B,CC (3B,CC | (3A,CC (3=B,,_A,A, (3F,A,A, | %69
 (3C,,CC (3_B,CC (3B,CC | (3A,CC (3A,CC (3A,CC | (3A,B,B, (3G,B,B, (3G,B,B, | %72
 (3G,B,B, (3G,B,B, (3G,B,B, | x8 | x321/40 |] %75
V:5
 x2 | x6 | x6 | x6 | x6 | x6 | x6 | x6 | x6 | x6 | x6 | x6 | x6 | x6 | x6 | x6 | x6 | x6 | x6 | %19
 x2 G,2 x2 | x6 | x2 G,2 z2 | x6 | x6 | x6 ||[K:Ab] x6 | x6 | x6 | x6 | x6 | x6 | x6 | x6 | x6 | %34
 x6 | x6 |[M:6/8] x6 |[M:3/4] x6 | x6 | x6 | x6 | x6 | x6 | x6 | x6 | x6 | x6 | x6 |[M:6/8] x6 || %49
[K:F][M:3/4] x6 | x6 | x6 | x6 | x6 | x6 | x6 | x6 | x6 | x6 | x6 | x6 | x6 | x6 | x6 | x6 | x6 | %66
 x6 | x2 G,2 x2 | x6 | x2 G,2 z2 | x6 | x6 | x6 | x8 | x321/40 |] %75
V:6
 x2 | x6 | x6 | x6 | x6 | x6 | x6 | x6 | x6 | x6 | x6 | x6 | x6 | x6 | x6 | x6 | x6 | x6 | x6 | %19
 x6 | x4 (8:2:8efedegfd | x6 | x6 | x6 | x6 ||[K:Ab] x6 | x6 | x6 | x6 | x6 | x6 | %31
 (6:4:6_c/d/c/d/c/d/ (6:4:6B/d/B/d/B/d/ (6:4:6A/d/A/d/A/d/ | %32
 (6:4:6_G/d/G/d/G/d/ (6:4:6F/d/F/d/F/d/ (6:4:6F/d/F/d/F/d/ | %33
 (6:4:6_c/d/c/d/c/d/ (6:4:6B/d/B/d/B/d/ (6:4:6A/d/A/d/A/d/ | %34
 (6:4:6_G/d/G/d/G/d/ (6:4:6F/d/F/d/F/d/ (6:4:6F/d/F/c/F/=B/ | g>a f x3 | %36
[M:6/8] C/E/B,/D/A,/C/ B,/D/A,/C/G,/C/ |[M:3/4] x6 | x6 | x6 | x6 | x6 | x6 | x6 | x6 | %45
 (6:4:6A/B/A/B/A/B/ (6:4:6_G/B/G/B/G/B/ (6:4:6A/B/A/B/A/B/ | %46
 (6:4:6_G/B/G/B/G/B/ (6:4:6G/A/G/A/G/A/ (6:4:6F/A/F/A/F/A/ | %47
 (6:4:6F/A/F/A/F/A/ (6:4:6E/F/E/F/E/F/ (6:4:6D/F/D/F/D/F/ |[M:6/8] D/F/D/F/D/F/ D/F/D/F/D/F/ || %49
[K:F][M:3/4] x6 | x6 | x6 | x6 | x6 | x6 | x6 | x6 | x6 | x6 | x6 | x6 | x6 | x6 | x6 | x6 | x6 | %66
 x6 | x6 | x4 (8:2:8efede{/e}gfd | x6 | x6 | x6 | x6 | x8 | x321/40 |] %75

